X: 44
T: The Gallowglass
M: 6/8
L: 1/8
R: jig
K: Gm
|:A|BAG dAc|BGG G2A|BAG d=ef|cAF FGA|
B2G dAc|BGB d2c|BAG ^FGA|1 BGG G2:|2 BGG G2g||
|: g^fg de/d/c|BGG G2A|BAG d=ef|cAF F2g|
|1 g^fg de/d/c|BGG Gdc|BAG ^FGA|BGG G2g:|
|2 gdg fdf| =ecA BFD|EGB dAc|BGG G3 |]
F: from GL's book at https://books.google.ie/books?id=-NWMAgAAQBAJ&lpg=PA127&ots=3hOP7WM65S&dq=gallowglass%20jig&pg=PA101#v=onepage&q=gallowglass%20jig&f=false

